!!!OTL: Dem Kuhlips war die Kau gepfaend't der         taet's nich fassen
!!!ARE: Europa, Mitteleuropa, Deutschland, Mittelhessen, Langsdorf
!!!SCT: D0087
!!!YEM: Copyright 1995, estate of Helmut Schaffrath.
**kern
*ICvox
*Ivox
!! Irregular meter.
*MX
*k[f#]
*G:
{8dd
=1
8gg
8dd
8b
8g
=2
8ee
8ee
4ee
8r}
{8ee
=3
8dd
8dd
8cc
8a
=4
8b
8b
8r}
{8dd
=5
8gg
8dd
8b
8g
=6
8ee
8ee
4ee
8r}
{8ee
=7
8dd
8dd
8cc
8a
=8
8b
8b
8r}
==
!!!AGN: Bauern - Klage
!! Taktart in "FREI" korrigiert; Grundton in der kleinen Oktave
!!!ONB: ESAC (Essen Associative Code) Database: DVA
!!!AMT: irregular
!!!AIN: vox
!!!EED: Helmut Schaffrath
!!!EEV: 1.0
*-
